lib/brands/logos/epic.svg

<svg xmlns="http://www.w3.org/2000/svg" fill="none" aria-hidden="true" viewBox="0 0 173 78"><g id="Epic"><g id="Group"><path id="Vector" fill="white" d="M164.322 21.5885C160.116 17.1982 153.322 15.0629 143.509 15.0629C137.019 15.0629 131.292 16.1435 126.433 18.282L129.345 4.61925H104.999L101.932 19.0391C98.3081 16.7744 93.6007 15.5611 88.1751 15.5611C85.8696 15.5582 83.5732 15.8507 81.3421 16.4314H69.0058L71.0538 6.80633H15.4062L4.3252 61.0465H48.3418L45.7535 73.2308H70.1058L72.652 61.2601C75.246 62.0591 77.9485 62.4499 80.6627 62.4183C84.9885 62.4389 89.2732 61.5769 93.2546 59.885L93.0054 61.0498H117.342L117.927 58.29C122.243 61.0304 128.228 62.4183 135.763 62.4183C151.536 62.4183 161.772 56.5947 167.068 44.5464C167.81 42.6031 168.261 40.5613 168.408 38.4866L168.651 34.1836C168.887 29.0783 167.428 24.84 164.322 21.5885Z" opacity="0.6"/><g id="Union"><path fill="#CE1141" d="M109.415 10.0804H122.593L120.9 18.0393H107.723L109.415 10.0804Z"/><path fill="#CE1141" fill-rule="evenodd" d="M65.6767 67.7696H52.496L55.0875 55.5853H11.0127L19.8548 12.2417H64.3017L62.2667 21.815H32.615L31.2044 29.2239H57.3393L55.3981 38.4252H29.2599L27.8558 45.9861H57.1355L62.2602 21.8668H75.0656L74.1145 26.3412H74.2406C77.7639 22.9215 82.8369 20.9965 88.1816 20.9965C97.8941 20.9965 103.921 25.3674 104.491 33.2907L106.917 21.8733H120.095L117.484 34.1675C121.483 25.0406 130.975 20.5112 143.522 20.5112C155.648 20.5112 163.658 24.0506 163.212 33.9216H149.552C149.235 30.9192 146.88 29.2142 141.859 29.2142C135.705 29.2142 131.247 32.6339 129.953 38.7261C128.659 44.8182 131.538 48.2379 137.879 48.2379C142.635 48.2379 146.272 46.2935 148.135 42.3593H162.073C157.977 51.6673 150.303 56.9409 135.78 56.9409C122.9 56.9409 115.575 52.625 115.51 43.4464L112.922 55.5724H99.7447L102.061 44.6596C98.3697 51.8 90.6502 56.9539 80.6563 56.9539C74.8133 56.9539 70.7465 55.0256 69.0382 52.5409H68.9121L65.6767 67.7696ZM83.0439 30.2236C76.8871 30.2236 72.9432 33.5787 71.8335 38.8005C70.7238 44.0223 73.2409 47.3805 79.3977 47.3805C85.4251 47.3805 89.3528 44.3943 90.5434 38.8005C91.734 33.2066 89.0746 30.2236 83.0439 30.2236Z" clip-rule="evenodd"/></g></g></g></svg>

<svg xmlns="http://www.w3.org/2000/svg" fill="none" aria-hidden="true" viewBox="0 0 173 78"><path fill="#fff" d="M164.322 21.588c-4.206-4.39-11-6.525-20.813-6.525-6.49 0-12.217 1.08-17.076 3.219l2.912-13.663h-24.346l-3.067 14.42c-3.624-2.265-8.331-3.478-13.757-3.478a26.993 26.993 0 0 0-6.833.87H69.006l2.048-9.625H15.406l-11.08 54.24h44.016l-2.588 12.185h24.352l2.546-11.97a26.178 26.178 0 0 0 8.01 1.157 31.81 31.81 0 0 0 12.593-2.533l-.25 1.165h24.337l.585-2.76c4.316 2.74 10.301 4.128 17.836 4.128 15.773 0 26.009-5.823 31.305-17.872a21.185 21.185 0 0 0 1.34-6.06l.243-4.302c.236-5.106-1.223-9.344-4.329-12.595Z" opacity=".6"/><path fill="#CE1141" d="M109.415 10.08h13.178l-1.693 7.96h-13.177l1.692-7.96Z"/><path fill="#CE1141" fill-rule="evenodd" d="M65.677 67.77H52.496l2.591-12.185H11.014l8.842-43.343h44.447l-2.035 9.573H32.615l-1.41 7.409h26.134l-1.94 9.201h-26.14l-1.403 7.561h29.28l5.124-24.12h12.806l-.951 4.475h.126c3.523-3.42 8.596-5.345 13.94-5.345 9.713 0 15.74 4.371 16.31 12.295l2.426-11.418h13.178l-2.611 12.294c3.999-9.126 13.491-13.656 26.038-13.656 12.126 0 20.136 3.54 19.69 13.41h-13.66c-.317-3.002-2.672-4.707-7.693-4.707-6.154 0-10.612 3.42-11.906 9.512-1.294 6.092 1.585 9.512 7.926 9.512 4.756 0 8.393-1.944 10.256-5.879h13.938c-4.096 9.308-11.77 14.582-26.293 14.582-12.88 0-20.205-4.316-20.27-13.495l-2.588 12.126H99.745l2.316-10.912c-3.691 7.14-11.41 12.294-21.405 12.294-5.843 0-9.91-1.928-11.618-4.413h-.126L65.677 67.77Zm17.367-37.546c-6.157 0-10.1 3.355-11.21 8.576-1.11 5.222 1.407 8.58 7.564 8.58 6.027 0 9.955-2.986 11.145-8.58 1.191-5.593-1.468-8.576-7.5-8.576Z" clip-rule="evenodd"/></svg>
